!!!COM: Bellasio, Paolo
!!!CDT:
!!!PTL: Il primo libro de madrigali a cinque voci
!!!PPP: Venice
!!!PPR: Heirs of G. Scotto
!!!PDT: 1578
!!!PUB-format:
!!!RISM: B 1713
!!!rime: 333
!!!OTL: Gelo ha Madonna il seno
!!!AGN: Madrigal
!!!SCT: Trm0333a
!!!SCA: Trm0333a
!!!original-voices: 5
!!!extant-voices: 5
!!!complete: Y
!!!final: F
**kern	**text	**kern	**text	**kern	**text	**kern	**text	**kern	**text
*part5	*part5	*part4	*part4	*part3	*part3	*part2	*part2	*part1	*part1
*staff5	*staff5	*staff4	*staff4	*staff3	*staff3	*staff2	*staff2	*staff1	*staff1
*I"Basso	*	*I"Tenore	*	*I"Alto	*	*I"Quinto	*	*I"Canto	*
*I'B	*	*I'T	*	*I'A	*	*I'V	*	*I'C	*
*oclefF4	*	*oclefC4	*	*oclefC3	*	*oclefC1	*	*oclefC1	*
*clefF4	*	*clefGv2	*	*clefG2	*	*clefG2	*	*clefG2	*
*k[b-]	*	*k[b-]	*	*k[b-]	*	*k[b-]	*	*k[b-]	*
*omet(C)	*	*omet(C)	*	*omet(C)	*	*omet(C)	*	*omet(C)	*
*M4/2	*	*M4/2	*	*M4/2	*	*M4/2	*	*M4/2	*
=1	=1	=1	=1	=1	=1	=1	=1	=1	=1
1F	Ge-	0r	.	1c	Ge-	1f	Ge-	1a	Ge-
2D	-l'ha	.	.	2d	-l'ha	2f#X	-l'ha	2a	-l'ha
4D	Ma	.	.	4d	Ma-	4f#X	Ma-	4a	Ma-
[4G	don-	.	.	[4d	-don-	[4g	-don-	[4b-y	-don-
=2	=2	=2	=2	=2	=2	=2	=2	=2	=2
4G]	.	1r	.	4d]	.	4g]	.	4b-]	.
4D	-na il	.	.	4d	-na il	4f#i	-na il	4a	-na il
1A	se-	.	.	1c#X	se-	1e	se-	1a	se-
.	.	2r	.	.	.	.	.	.	.
2AA	-no,	4r	.	4c#i	-no,	2e	-no,	2a	-no et
.	.	4A	Et	4c#i	et	.	.	.	.
=3	=3	=3	=3	=3	=3	=3	=3	=3	=3
1r	.	2G	fiam-	2d	fiam-	2g	et	2bnX	fiam-
.	.	2F	-ma il	2f	-ma il	2a	fiam-	2cc	-ma il
2r	.	1c	vol-	2e	vol-	2g	-ma il	2cc	vil-
4r	.	.	.	4e	-to,	4g	vol-	2cc	-to,
4F	et	.	.	4f	et	4a	-to et	.	.
=4	=4	=4	=4	=4	=4	=4	=4	=4	=4
8BB-yL	fiam-	4d	-to,	2.f	fiam-	8b-yL	fiam-	4r	.
8C	.	.	.	.	.	8a	.	.	.
8D	.	4d	et	.	.	8f	.	4a	et
8EJ	.	.	.	.	.	8gJ	.	.	.
4F	.	4c	fiam-	.	.	4a	.	4a	fiam-
4G	-ma il	4G	-ma il	4d	-ma il	4b-y	-ma il	4g	-ma il
2C	vol-	2G	vol-	2e	vol-	2cc	vol-	2g	vol-
2F	-to;	2A	-to;	2c	-to;	2a	-to;	2f	-to;
=5	=5	=5	=5	=5	=5	=5	=5	=5	=5
0r	.	4r	.	4r	.	4r	.	4r	.
.	.	2F	Io	2f	Io	2a	Io	2cc	Io
.	.	2B-y	son	2f	son	2b-y	son	2dd	son
.	.	4B-y	di	4d	di	4g	di	4dd	di
.	.	[2G	ghiac-	[2d	ghiac-	[2g	ghiac-	[2bnX	ghiac-
=6	=6	=6	=6	=6	=6	=6	=6	=6	=6
0r	.	2G]	.	2d]	.	2g]	.	2b]	.
.	.	2G	-cio	2d	-cio	2g	-cio	2bnXi	-cio
.	.	2D	fuo-	2d	fuo-	2f#X	fuo-	2a	fuo-
.	.	2D	-ri	2d	-ri	2f#i	-ri	2a	-ri
=7	=7	=7	=7	=7	=7	=7	=7	=7	=7
4r	.	4r	.	4r	.	0r	.	4r	.
4C	E'l	4G	E'l	4c	E'l	.	.	4e	E'l
2F	fuo-	2A	fuo-	2c	fuo-	.	.	2f	fuo-
4C	-c'ho	4G	-c'ho	4c	-c'ho	.	.	4e	-c'ho
2D	den-	2F#X	den-	2A	den-	.	.	2d	den-
4GG	-tro ac-	4G	-tro ac-	4BnX	-tro ac-	.	.	4d	-tro ac-
=8	=8	=8	=8	=8	=8	=8	=8	=8	=8
2C	-col-	2G	-col-	2c	-col-	2r	.	2e	-col-
4C	-to,	4G	-to,	4c	-to,	4r	.	4e	-to,
4FF	E'l	4A	E'l	4c	E'l	4f	E'l	4a	<E'l
8BB-yL	fuo-	4.F	fuo-	8dL	fuo-	2f	fuo-	4b-y	fuo-
8C	.	.	.	8eJ	.	.	.	.	.
8D	.	.	.	2f	.	.	.	4b-y	-c'ho
8EJ	.	8G	.	.	.	.	.	.	.
4F	.	4A	.	.	.	4c	-c'ho	4a	den-
4G	-c'ho	4G	-c'ho	4d	-c'ho	[4g	den-	4b-y	-tro ac-
=9	=9	=9	=9	=9	=9	=9	=9	=9	=9
4E	den-	4C	den-	4g	den-	4g]	.	1cc	-col-
4F	-tro ac-	4F	-tro ac-	4f	-tro ac-	4a	-tro ac-	.	.
1C	-col-	1G	-col-	1e	-col-	1g	-col-	.	.
.	.	.	.	.	.	.	.	1cc	-to.>
2C	-to.	2G	-to.	2e	-to.	2g	-to.	.	.
=10	=10	=10	=10	=10	=10	=10	=10	=10	=10
2r	.	2r	.	2r	.	2r	.	2r	.
2.F	Que-	2.A	Que-	2.c	Que-	2.f	Que-	2.a	Que-
4F	-st'a-	4A	-st'a-	4c	-st'a-	4f	-st'a-	4a	-st'a-
2D	-vien,	2A	-vien,	2d	-vien,	2f	-vien,	2a	-vien,
=11	=11	=11	=11	=11	=11	=11	=11	=11	=11
4AA	per-	4A	per-	4c#X	per-	4e	per-	4a	per-
4AA	-ch'A-	4A	-ch'A-	4c#i	-ch'A-	4e	-ch'A-	4a	-ch'A-
2D	-mo-	2A	-mo-	2d	-mo-	2f#X	-mo-	2a	-mo-
1GG	-re	2G	-re,	2d	-re,	2g	-re,	2bnX	-re,
.	.	[2G	Que-	[2d	Que-	[2g	Que-	[2bnX	Que-
=12	=12	=12	=12	=12	=12	=12	=12	=12	=12
0r	.	4G]	.	4d]	.	4g]	.	4b]	.
.	.	4C	-st'a-	4e	-st'a-	4g	-st'a-	4cc	-st'a-
.	.	2F	-vien	2cnXi	-vien	2fnXi	-vien	2a	-vien
.	.	4D	per-	4d	per-	4f#X	per-	4a	per-
.	.	4A	-ch'A-	4e	-ch'A-	4a	-ch'A-	4cc	-ch'A-
.	.	2E	-mo-	2e	-mo-	2g#X	-mo-	2bnX	-mo-
=13	=13	=13	=13	=13	=13	=13	=13	=13	=13
4r	.	2A	-re	4e	-re	2a	-re	2.a	-re
4AA	Nel-	.	.	4c#X	Nel-	.	.	.	.
4AA	-la	2A	Nel-	4c#i	-la	2e	Nel-	.	.
4AA	sua	.	.	4c#i	sua	.	.	4a	Nel-
4D	front'	4D	-la	2.d	fron-	4f	-la	4a	-la
4BB-y	al-	4D	sua	.	.	4d	sua	4g	sua
2AA	-ber-	[2A	fron-	.	.	2e	fron-	2a	fron-
.	.	.	.	4c#X	-t'al-	.	.	.	.
=14	=14	=14	=14	=14	=14	=14	=14	=14	=14
4D	-ga e	4A]	.	2.d	-ber-	4f	-t'al-	4a	-t'al-
2GG	nel	4G	-t'al-	.	.	2g	-ber-	2b-y	-ber-
.	.	4G	-ber-	.	.	.	.	.	.
4D	mio	4D	-ga e	4d	-ga e	4f	-ga e	4a	-ga e
1AA	pet-	4E	nel	4c#X	nel	4e	nel	4a	nel
.	.	4F	mio	4d	mio	4d	mio	4a	mio
.	.	2E	pet-	2c#X	pet-	2e	pet-	2a	pet-
=15	=15	=15	=15	=15	=15	=15	=15	=15	=15
1D	-to,	1D	-to,	2d	-to,	1f#X	-to,	1a	-to,
.	.	.	.	2A	Né	.	.	.	.
4r	.	4r	.	2c	mai	4r	.	4r	.
4C	Né	4G	Né	.	.	4g	Né	4e	Né
4C	mai	4G	mai	4c	can-	4g	mai	4e	mai
[4C	can-	[4G	can-	4c	-gia	[4g	can-	[4e	can-
=16	=16	=16	=16	=16	=16	=16	=16	=16	=16
8C]	.	8G]	.	2c	ri-	8g]	.	8e]	.
8C	-gia	8G	-gia	.	.	8g	-gia	8e	-gia
4C	ri-	4E	ri-	.	.	4g	ri-	4e	ri-
1AA	-cet-	2E	-cet-	1c#X	-cet-	1a	-cet-	1e	-cet-
.	.	1A	-to,	.	.	.	.	.	.
2AA	-to,	.	.	2c#i	-to,	2a	-to,	2e	-to,
=17	=17	=17	=17	=17	=17	=17	=17	=17	=17
4r	.	4r	.	4r	.	4r	.	4r	.
4D	Né	4A	<Né	4d	Né	4a	Né	4f#X	<Né
4GG	mai	4G	mai	4d	mai	4bnX	mai	4g	mai
4.C	can-	4.G	can-	4.e	can-	4.cc	can-	4.g	can-
8C	-gia	8E	-gia	8e	-gia	8cc	-gia	8g	-gia
4FF	ri-	4F	ri-	4c	ri-	4a	ri-	4fnXi	ri-
[2C	-cet-	[2G	-cet-	[2c	-cet-	[2g	-cet-	[2e	-cet-
=18	=18	=18	=18	=18	=18	=18	=18	=18	=18
2C]	.	2G]	.	2c]	.	2g]	.	2e]	.
2C	-to	2G	-to>	2c	-to	2g	-to	2e	-to>
2.F	Sì	2.A	Sì	2.c	Sì	1r	.	1r	.
4E	ch'io	4G	ch'io	4c	ch'io	.	.	.	.
=19	=19	=19	=19	=19	=19	=19	=19	=19	=19
2D	l'hab-	8FL	l'hab-	2f	l'hab-	0r	.	0r	.
.	.	8G	.	.	.	.	.	.	.
.	.	8A	.	.	.	.	.	.	.
.	.	8B-yJ	.	.	.	.	.	.	.
4C	-bia	4c	.	4e	-bia	.	.	.	.
4BB-y	ne-	4.F	-bia	4d	ne-	.	.	.	.
4AA	-gl'oc-	.	.	2.c	-gl'oc-	.	.	.	.
.	.	8E	ne-	.	.	.	.	.	.
4FF	-chi el-	2A	-gl'oc-	.	.	.	.	.	.
4AA	-la	.	.	.	.	.	.	.	.
4BB-y	nel	8G	-chi,	4d	-chi el-	.	.	.	.
.	.	8F	el-	.	.	.	.	.	.
=20	=20	=20	=20	=20	=20	=20	=20	=20	=20
1C	co-	8E	-la	4c	-la	0r	.	2r	.
.	.	8C	nel	.	.	.	.	.	.
.	.	4.F	co-	4A	nel	.	.	.	.
.	.	.	.	2G	co-	.	.	2.cc	Sì
.	.	16EL	.	.	.	.	.	.	.
.	.	16DJ	.	.	.	.	.	.	.
.	.	4E	.	.	.	.	.	.	.
1FF	-re,	1F	.	1A	-re,	.	.	.	.
.	.	.	.	.	.	.	.	4b-y	ch'io
.	.	.	.	.	.	.	.	2a	l'hab-
=21	=21	=21	=21	=21	=21	=21	=21	=21	=21
0r	.	4C	-re,	0r	.	2.e	Sì	2g	-bia,
.	.	2c	Sì	.	.	.	.	.	.
.	.	.	.	.	.	.	.	2g	Sì
.	.	4B-y	ch'io	.	.	4d	ch'io	.	.
.	.	2A	l'hab-	.	.	8cL	l'hab-	2cc	ch'io
.	.	.	.	.	.	8d	.	.	.
.	.	.	.	.	.	8e	.	.	.
.	.	.	.	.	.	8fJ	.	.	.
.	.	4G	-bia	.	.	2g	.	2b-y	l'hab-
.	.	4G	ne-	.	.	.	.	.	.
=22	=22	=22	=22	=22	=22	=22	=22	=22	=22
0r	.	2.d	-gl'oc-	1r	.	4f	-bia	4a	-bia
.	.	.	.	.	.	4d	ne-	4f	ne-
.	.	.	.	.	.	4f	-gl'oc-	4a	-gl'oc-
.	.	4d	-chi el-	.	.	4f	-chi el-	4b-y	-chi el-
.	.	4c	-la	2r	.	8e	-la	4cc	-la
.	.	.	.	.	.	8c	nel	.	.
.	.	4F	nel	.	.	4.f	co-	4a	nel
.	.	2C	co-	[2c	Sì	.	.	2g	co-
.	.	.	.	.	.	16eL	.	.	.
.	.	.	.	.	.	16dJ	.	.	.
.	.	.	.	.	.	4e	.	.	.
=23	=23	=23	=23	=23	=23	=23	=23	=23	=23
2.F	<Sì	4F	-re,	2c]	.	4f	-re,	4a	-re,
.	.	2A	<Sì	.	.	2f	<Sì	2a	Sì
.	.	.	.	2c	ch'io	.	.	.	.
4E	ch'io	4c	ch'io	.	.	4g	ch'io	4g	ch'io
2D	l'hab-	2F	l'hab-	2d	l'hab-	2a	l'hab-	8fL	l'hab-
.	.	.	.	.	.	.	.	8g	.
.	.	.	.	.	.	.	.	8a	.
.	.	.	.	.	.	.	.	8b-yJ	.
4C	-bia	4E	-bia	4e	-bia	4a	-bia	4cc	.
4BB-y	ne-	4D	ne-	4f	ne-	4b-y	ne-	[4f	-bia
=24	=24	=24	=24	=24	=24	=24	=24	=24	=24
4AA	-gl'oc-	4.A	-gl'oc-	4c	-gl'oc-	2.cc	-gl'oc-	8f]	.
.	.	.	.	.	.	.	.	8e	ne-
4FF	-chi el-	.	.	4c	-chi el-	.	.	2a	-gl'oc-
.	.	8B-y	.	.	.	.	.	.	.
4AA	-la	4c	.	4f	-la	.	.	.	.
4BB-y	nel	4B-y	-chi el-	4F	nel	4dd	-chi el-	8g	-chi,
.	.	.	.	.	.	.	.	8f	el-
1C	co-	4G	-la	1c	co-	4cc	-la	8e	-la
.	.	.	.	.	.	.	.	8c	nel
.	.	4F	nel	.	.	4a	nel	4.f	co-
.	.	2G	co-	.	.	2g	co-	.	.
.	.	.	.	.	.	.	.	16eL	.
.	.	.	.	.	.	.	.	16dJ	.
.	.	.	.	.	.	.	.	4e	.
=25	=25	=25	=25	=25	=25	=25	=25	=25	=25
1FF	-re,>	1F	-re,>	1c	-re,	1a	-re,	1f	-re;
2r	.	2r	.	2r	.	2r	.	2r	.
[2F	Que-	[2A	Que-	[2c	Que-	[2a	Que-	[2f	Que-
=26	=26	=26	=26	=26	=26	=26	=26	=26	=26
4F]	.	4A]	.	4c]	.	4a]	.	4f]	.
4F	-st'a-	4A	-st'a-	4c	-st'a-	4a	-st'a-	4f	-st'a-
2D	-vien,	2A	-vien,	2d	-vien,	2a	-vien,	2f	-vien,
4AA	per-	4A	per-	4c#X	per-	4a	per-	4e	per-
4AA	-ch'A-	4A	-ch'A-	4c#i	-ch'A-	4a	-ch'A-	4e	-ch'A-
2D	-mo-	2A	-mo-	2d	-mo-	2a	-mo-	2f#X	-mo-
=27	=27	=27	=27	=27	=27	=27	=27	=27	=27
1GG	-re	2G	-re,	2d	-re,	2bnX	-re,	2g	-re,
.	.	2.G	<Que-	2.d	<Que-	2.bnX	<Que-	2.g	<Que-
1r	.	.	.	.	.	.	.	.	.
.	.	4C	-st'a-	4e	-st'a-	4cc	-st'a-	4g	-st'a-
.	.	2F	-vien,	2cnXi	-vien,	2a	-vien,	2fnXi	-vien,
=28	=28	=28	=28	=28	=28	=28	=28	=28	=28
1r	.	4D	per-	4d	per-	4a	per-	4f#X	per-
.	.	4A	-ch'A-	4e	-ch'A-	4cc	-ch'A-	4a	-ch'A-
.	.	2E	-mo-	2e	-mo-	2bnX	-mo-	2g#X	-mo-
4r	.	2A	-re>	4e	-re>	2.a	-re>	2a	-re>
4AA	Nel-	.	.	4c#X	Nel-	.	.	.	.
4AA	-la	4r	.	4c#i	-la	.	.	2e	Nel-
4AA	sua	4A	Nel-	4c#i	sua	4a	Nel-	.	.
=29	=29	=29	=29	=29	=29	=29	=29	=29	=29
4D	fron-	4D	-la	2d	fron-	4a	-la	4f	-la
4BB-y	-te al-	4D	sua	.	.	4g	sua	4d	sua
2AA	-ber-	2.A	fron-	2c#X	-te al-	2a	fron-	2e	fron-
4D	-ga e	.	.	2.d	-ber-	4a	-te al-	4f	-te al-
2GG	nel	4G	-te al-	.	.	2b-X	-ber-	2g	-ber-
.	.	4G	-ber-	.	.	.	.	.	.
4D	mio	4D	-ga e	4d	-ga e	4a	-ga e	4f	-ga e
=30	=30	=30	=30	=30	=30	=30	=30	=30	=30
1AA	pet-	4E	nel	4c#X	nel	4a	nel	4e	nel
.	.	4F	mio	4d	mio	4a	mio	4d	mio
.	.	2E	pet-	2c#X	pet-	2a	pet-	2e	pet-
1D	-to,	1D	-to,	2d	-to,	1a	-to,	1f#X	-to,
.	.	.	.	2A	Né	.	.	.	.
=31	=31	=31	=31	=31	=31	=31	=31	=31	=31
4r	.	4r	.	2c	mai	4r	.	4r	.
4C	Né	4G	Né	.	.	4e	Né	4g	Né
4C	mai	4G	mai	2c	can-	4e	mai	4g	mai
4.C	can-	4.G	can-	.	.	4.e	can-	4.g	can-
.	.	.	.	4c	-gia	.	.	.	.
8C	-gia	8G	-gia	.	.	8e	-gia	8g	-gia
4C	ri-	4E	ri-	4c	ri-	4e	ri-	4g	ri-
[2AA	-cet-	2E	-cet-	[2c#X	-cet-	[2e	-cet-	[2a	-cet-
=32	=32	=32	=32	=32	=32	=32	=32	=32	=32
2AA]	.	1A	-to,	2c#]	.	2e]	.	2a]	.
2AA	-to,	.	.	2c#X	-to,	2e	-to,	2a	-to,
4r	.	4r	.	4r	.	4r	.	4r	.
4D	<Né	4A	<Né	4d	<Né	4f#X	<Né	4a	<Né
4GG	mai	4G	mai	4d	mai	4g	mai	4bnX	mai
[4C	can-	[4G	can-	[4e	can-	[4g	can-	[4cc	can-
=33	=33	=33	=33	=33	=33	=33	=33	=33	=33
8C]	.	8G]	.	8e]	.	8g]	.	8cc]	.
8C	-gia	8E	-gia	8e	-gia	8g	-gia	8cc	-gia
4FF	ri-	4F	ri-	4c	ri-	4f	ri-	4a	ri-
1C	-cet-	1G	-cet-	1c	-cet-	1e	-cet-	1g	-cet-
2C	-to>	2G	-to>	2c	-to>	2e	-to>	2g	-to>
=34	=34	=34	=34	=34	=34	=34	=34	=34	=34
2.F	Sì	2.A	Sì	2.c	Sì	0r	.	0r	.
4E	ch'io	4G	ch'io	4c	ch'io	.	.	.	.
2D	l'hab-	8FL	l'hab-	2f	l'hab-	.	.	.	.
.	.	8G	.	.	.	.	.	.	.
.	.	8A	.	.	.	.	.	.	.
.	.	8B-yJ	.	.	.	.	.	.	.
4C	-bia	4c	.	4e	-bia	.	.	.	.
4BB-y	ne-	[4F	-bia	4d	ne-	.	.	.	.
=35	=35	=35	=35	=35	=35	=35	=35	=35	=35
4AA	-gl'oc-	8F]	.	2.c	-gl'oc-	1r	.	0r	.
.	.	8E	ne	.	.	.	.	.	.
4FF	-chi el-	2A	gl'oc-	.	.	.	.	.	.
4AA	-la	.	.	.	.	.	.	.	.
4BB-y	nel	8G	-chi,	4d	-chi el	.	.	.	.
.	.	8F	el-	.	.	.	.	.	.
1C	co-	8E	-la	4c	la	2r	.	.	.
.	.	8C	nel	.	.	.	.	.	.
.	.	4.F	co-	4A	nel	.	.	.	.
.	.	.	.	2G	co-	[2cc	Sì	.	.
.	.	16EL	.	.	.	.	.	.	.
.	.	16DJ	.	.	.	.	.	.	.
.	.	4E	.	.	.	.	.	.	.
=36	=36	=36	=36	=36	=36	=36	=36	=36	=36
1FF	-re,	1F	.	1A	-re,	4cc]	.	1r	.
.	.	.	.	.	.	4b-y	ch'io	.	.
.	.	.	.	.	.	2a	l'hab-	.	.
1r	.	1C	-re,	2.c	Sì	2g	-bia,	2.e	Sì
.	.	.	.	.	.	2g	<Sì	.	.
.	.	.	.	4B-y	ch'io	.	.	4d	ch'io
=37	=37	=37	=37	=37	=37	=37	=37	=37	=37
0r	.	0r	.	2A	l'hab-	2cc	ch'io	8cL	l'hab-
.	.	.	.	.	.	.	.	8d	.
.	.	.	.	.	.	.	.	8e	.
.	.	.	.	.	.	.	.	8fJ	.
.	.	.	.	4G	-bia	2b-y	l'hab-	2g	.
.	.	.	.	4G	ne-	.	.	.	.
.	.	.	.	2.d	-gl'oc-	4a	-bia>	4f	-bia
.	.	.	.	.	.	4f	ne-	4d	ne-
.	.	.	.	.	.	4a	-gl'oc-	4f	-gl'oc-
.	.	.	.	4d	-chi el-	4b-y	-chi el-	4f	-chi el-
=38	=38	=38	=38	=38	=38	=38	=38	=38	=38
1r	.	1r	.	4c	-la	4cc	-la	8e	-la
.	.	.	.	.	.	.	.	8c	nel
.	.	.	.	4F	nel	4a	nel	4.f	co-
.	.	.	.	2c	co-	2g	co-	.	.
.	.	.	.	.	.	.	.	16eL	.
.	.	.	.	.	.	.	.	16dJ	.
.	.	.	.	.	.	.	.	4e	.
2.F	Sì	2.A	Sì	4F	-re,	4a	-re,	4f	-re,
.	.	.	.	2c	<sì	2a	Sì	2f	Sì
4E	ch'io	4c	ch'io	4c	ch'io	4g	ch'io	4g	ch'io
=39	=39	=39	=39	=39	=39	=39	=39	=39	=39
2D	l'hab-	2F	l'hab-	2d	l'hab-	8fL	l'hab-	2a	l'hab-
.	.	.	.	.	.	8g	.	.	.
.	.	.	.	.	.	8a	.	.	.
.	.	.	.	.	.	8b-yJ	.	.	.
4C	-bia	4E	-bia	4e	-bia	4cc	.	4a	-bia
4BB-y	ne-	4D	ne-	4f	ne-	4.f	-bia	4b-y	ne-
4AA	-gl'oc-	4.A	-gl'oc-	4c	-gl'oc-	.	.	2.cc	-gl'oc-
.	.	.	.	.	.	8e	ne-	.	.
4FF	-chi el-	.	.	4c	-chi el-	2a	-gl'oc-	.	.
.	.	8B-y	-chi el-	.	.	.	.	.	.
4AA	-la	4c	-la	4f	-la	.	.	.	.
4BB-y	nel	4B-y	nel	4F	nel	8g	-chi,	4dd	-chi el-
.	.	.	.	.	.	8f	el-	.	.
=40	=40	=40	=40	=40	=40	=40	=40	=40	=40
1C	co-	4G	co-	1c	co-	8e	-la	4cc	-la
.	.	.	.	.	.	8c	nel	.	.
.	.	4F	.	.	.	4.f	co-	4a	nel
.	.	2G	.	.	.	.	.	2g	co-
.	.	.	.	.	.	16eL	.	.	.
.	.	.	.	.	.	16dJ	.	.	.
.	.	.	.	.	.	4e	.	.	.
1FFl	-re.	1Fl	-re.	1cl	-re.	1fl	-re.	1al	-re.
==	==	==	==	==	==	==	==	==	==
*-	*-	*-	*-	*-	*-	*-	*-	*-	*-
!!!system-decoration: [*]
!!!YEM:	Paolo Bellasio, "Gelo ha Maddona il seno" 1578 (Trm 0333a; 22 Aug 2018) Tasso in Music Project (http://www.tassomusic.org) Copyright 2018 Emiliano Ricciardi
!!!RDF**kern: i = editorial accidental
!!!RDF**kern: l = terminal long
!!!ENC: Emiliano Ricciardi
!!!END: 2018
!!!EED: Donnelly, Daniel
!!!EEV: 2018/10/28
!!!YEC: Copyright 2018 Emiliano Ricciardi, All Rights Reserved
!!!ONB: Translated from MusicXML on 2018/10/28 and edited by Craig Stuart Sapp
!!@@BEGIN:	VERSEDATA
!!@SOLERTI:	333
!!@CATALOGNUM:	Trm0333
!!@LAST_MODIFIED: 2020/07/12
!!@TITLE:		Gelo ha Madonna il seno, e fiamma il volto
!!@GENRE:		madrigale
!!@MANUSRC:	A<sub>3</sub>, Amz, C, E<sub>1</sub>, E<sub>7</sub>, Flc<sub>2</sub>, I<sub>4</sub>, I<sub>5</sub>, M<sub>7</sub>, P<sub>4</sub>, V<sub>2</sub>, V<sub>8</sub>, V<sub>13/E1</sub>, W
!!@PRINTSRC:	8, 9, 11, 12, 13, 15, 20, 24, 29, 33, 67, 93, 141, 166, 169
!!@@BEGIN:	VERSES
!!@ABOUTIT:	Rende la ragione perché la sua donna sia amata ed egli amante.
!!@ABOUTEN:	He explains the reason why his lady is the beloved and he is the lover.
!!@EDITOR:	Solerti, Angelo
!!@EDITION_TITLE: Le Rime di Torquato Tasso
!!@EDITION_LOC:	Bologna
!!@EDITION_PUB:	Romagnoli-Dall’Acqua
!!@EDITION_DATE:  1898-1902
!!@EDITION_VOL:	2
!!@EDITION_PAGE:  381
!!@TRANSLATOR:	Emiliano Ricciardi and Amyrose McCue Gill
!!@VERSE:
!!	Gelo ha Madonna il seno, e fiamma il volto;
!!	Io son ghiaccio di fuore
!!	E 'l foco ho dentro accolto.
!!	Questo avvien, perch'Amore
!!	Ne la sua fronte alberga e nel mio petto,
!!	Né mai cangia ricetto
!!	Sì ch'io l'abbia ne gli occhi, ella nel core.
!!@TVERSE:
!!	Ice has my lady [in] her breast, and flame [in] her face;
!!	I am ice on the outside
!!	And fire I have embraced within.
!!	This happens because Love
!!	In her forehead dwells and in my heart,
!!	Nor ever does it change refuge
!!	So that I have it in my eyes, she in her heart.
!!@@END:		VERSES
!!@OTHER_CRIT_ED:   Torquato Tasso, <i>Rime d’amore (secondo il codice
!!		Chigiano L VIII 302)</i>, eds. Franco Gavazzeni and
!!		Vercingetorige Martignone, vol. 4 of <i>Edizione
!!		Nazionale delle opere di Torquato Tasso</i>
!!		(Alessandria: Edizioni Dell’Orso, 2004), 170.
!!@ATTRIBUTION_ABOUT:	Secure
!!		<br>
!!		Among other authoritative sources (see Literary
!!		Sources), this poem appears in the autograph Chigiano
!!		L.VIII.302 (Biblioteca Vaticana, Rome), compiled
!!		around 1584&ndash;85.
!!@DATING:	In or before 1578
!!	<br>
!!	The earliest datable appearance of this poem is in a musical setting by the Veronese composer Paolo Bellasio, published in 1578 (see Musical Settings).
!!@DEDICATEE:
!!@COMMENTARY:
!!@@END:		VERSEDATA
!!@@BEGIN:	SETTING
!!@CATALOGNUM:	Trm0333a
!!@RIMETITLE:	Gelo ha Madonna il seno
!!@SOLERTI:	333
!!@COMPOSER:	Bellasio, Paolo
!!@PRINCEPSTITLE:	Il primo libro de madrigali a cinque voci
!!@PRINCEPSLOC:	Venetia
!!@NORMLOC:	Venice
!!@NORMPUB:	Heirs of G. Scotto
!!@NORMPUBSHORT:	Scotto
!!@PRINCEPSPUB:	Herede di G. Scotto
!!@PRINCEPSYEAR:	1578
!!@PRINCEPSRISM:	B 1713
!!@REPRINTS:	
!!@OVOICES:	5
!!@EXTANTVOICES:	5
!!@PARTBOOKS:	
!!@EXTPARTBOOKS:	
!!@OCLEFS:	C1,C1,C3,C4,F4
!!@OMENSURATION:	C
!!@OKEYSIG:	b-
!!@FINAL:	F
!!@TIMPEDITOR:	Donnelly, Daniel
!!@NOTE:		
!!@@END:		SETTING
